src/icons/IconMGRP/IconMGRP_size_m.svg

<svg width="24" height="24" viewBox="0 0 24 24" fill="none" xmlns="http://www.w3.org/2000/svg">
  <path
    d="M15.0556 9L12.6111 5.82759L13.3095 3.06897L11.3889 1L12 3.06897L9.55556 5.82759L9.86111 9L1 9V11L23 11V9H15.0556Z"
    fill="black"
  />
  <path
    d="M8.94444 15L11.3889 18.1724L10.6905 20.931L12.6111 23L12 20.931L14.4444 18.1724L14.1389 15H23V13H1V15H8.94444Z"
    fill="black"
  />
</svg>

<svg viewBox="0 0 24 24" xmlns="http://www.w3.org/2000/svg">
  <path
    d="M15.056 9L12.61 5.828l.698-2.759L11.39 1 12 3.069 9.556 5.828 9.86 9H1v2h22V9h-7.944zM8.944 15l2.445 3.172-.698 2.759L12.61 23 12 20.931l2.444-2.759L14.14 15H23v-2H1v2h7.944z"
  />
</svg>
